X: 21216
T: MINUET FROM "PORUS."
%R: minuet, waltz
B: W. Hamilton "Universal Tune-Book" Vol. 2 Glasgow 1846 p.121 #4
S: http://s3-eu-west-1.amazonaws.com/itma.dl.printmaterial/book_pdfs/hamiltonvol2web.pdf
Z: 2016 John Chambers <jc:trillian.mit.edu>
M: 3/8
L: 1/8
K: D
% - - - - - - - - - - - - - - - - - - - - - - - - -
|:\
d3 | e3  | fgf | eac |\
d3 | e3  | fgf | e3 :: \
f3 | g3  | agf | gea |\
d3 | e2g | fge | d3 :|
% - - - - - - - - - - - - - - - - - - - - - - - - -

%%sep 1 1 500
%%sep 1 1 500

